X:1
T:Title
%%score { 1 | 2 }
L:1/8
Q:1/4=100
M:6/8
K:Bb
V:1 treble nm="Grand Piano"
V:2 bass 
V:1
 [DF]2 [B,D] [DF]2 [DB] | [Fd]3 [DB]3 | c2 =B c2 d |[M:5/8] G-G- G3 |[M:1/8] G |[M:3/4] A2 A G2 G | %6
w: J.~R.~Beveridge * * *||||||
 [DF]3 [FB]3 | [=Ec]2 [EG] [EA]2 [EB] | [Ec]6 | [DF]2 [B,D] [DF]2 [DB] | [Fd]6 | %11
w: |||||
 [GB]2 [Gc] [GB]2 [EG] |[M:5/8] [DF]-[DF]- [DF]3 |[M:1/8] D |[M:3/4] E2 D E2 F | A3 G3 | %16
w: |||||
 [DF]2 [EG] [DF]2 [CE] | [B,D]6 | [DF]2 [B,D] [DF]2 [DB] | [Fd]6 | [GB]2 [Gc] [B,GB]2 [B,EG] | %21
w: |||||
[M:5/8] [B,DF]-[B,DF]- [B,DF]3 |[M:1/8] z |[M:3/4] [B,EG]2 [B,FA] [B,GB]2 [B,EG] | %24
w: |||
 [B,DF][B,FB]- [B,FB]3 z | [=Ec]2 [EG] [_EA]2 [EF] | [DB]6 |] %27
w: |||
V:2
 [B,,B,]2 [B,,F,] [B,,F,]2 [B,,F,] | [B,,B,]3 [B,,F,]3 | [E,G,E]2 [E,G,E] [E,G,E]2 [E,G,E] | %3
[M:5/8] [E,CE]-[E,CE]- [E,CE]3 |[M:1/8] [E,CE] |[M:3/4] [F,CE]2 [F,CE] [F,A,E]2 [F,A,E] | %6
 [B,,B,]3 [D,B,]3 | [C,B,]2 [C,B,] [C,C]2 [C,G,] | [F,A,]6 | [B,,B,]2 [B,,F,] [B,,F,]2 [B,,F,] | %10
 [B,,B,]6 | [E,B,]2 [E,B,] [E,B,]2 [E,B,] |[M:5/8] [B,,B,]-[B,,B,]- [B,,B,]3 |[M:1/8] [B,,B,] | %14
[M:3/4] [F,A,C]2 [F,_A,=B,] [F,=A,C]2 [F,A,D] | [F,CE]3 [F,A,E]3 | %16
 [B,,B,]2 [B,,B,] [B,,B,]2 [B,,F,] | [B,,F,]6 | [B,,B,]2 [B,,F,] [B,,F,]2 [B,,F,] | [B,,B,]6 | %20
 [E,B,]2 [E,B,] E,2 E, |[M:5/8] B,,-B,,- B,,3 |[M:1/8] z |[M:3/4] E,2 E, E,2 E, | B,,D,- D,3 z | %25
 [C,B,]2 [C,B,] [F,C]2 [F,A,] | [B,,B,]6 |] %27

